svgs/sharp-light/3.svg

<svg xmlns="http://www.w3.org/2000/svg" viewBox="0 0 320 512"><!--! Font Awesome Pro 6.6.0 by @fontawesome - https://fontawesome.com License - https://fontawesome.com/license (Commercial License) Copyright 2024 Fonticons, Inc. --><path d="M304 32l0 23-5.1 4.8L120.9 224l71.1 0c70.7 0 128 57.3 128 128s-57.3 128-128 128l-99.2 0c-38.4 0-73.1-22.9-88.2-58.2l-3.2-7.5 29.4-12.6 3.2 7.5C44 432.7 67.1 448 92.8 448l99.2 0c53 0 96-43 96-96s-43-96-96-96L80 256l-16 0 0-23 5.1-4.8L247.1 64 16 64 0 64 0 32l16 0 272 0 16 0z"/></svg>

<svg xmlns="http://www.w3.org/2000/svg" viewBox="0 0 320 512"><!--! Font Awesome Pro 6.4.0 by @fontawesome - https://fontawesome.com License - https://fontawesome.com/license (Commercial License) Copyright 2023 Fonticons, Inc. --><path d="M304 32V55l-5.1 4.8L120.9 224H192c70.7 0 128 57.3 128 128s-57.3 128-128 128H92.8c-38.4 0-73.1-22.9-88.2-58.2l-3.2-7.5 29.4-12.6 3.2 7.5C44 432.7 67.1 448 92.8 448H192c53 0 96-43 96-96s-43-96-96-96H80 64V233l5.1-4.8L247.1 64H16 0V32H16 288h16z"/></svg>
